X: 1
T: The New Air
M: 3/4
L: 1/8
K: Amix
C: MAC
f>e | d2 A2 f>d | e2 A2 f>e | d2 B2 G2 | A2 A2 e>f | 
g2 B2 a>f| g2 G2 B<d | f2 f2 g<f | e2 e2 f>e | 
d2 A2 f>d | e2 A2 A<B | c2 f2 f2 | f<e e2 e<f | 
c2 c2 c<f | A2 A2 A<c | c<B B2 B2 | B6 ||

